X: 1
T: Reel des Accorde\'onistes
C: Marcel Messervier
M: C|
Z: Transcribed to abc by Mary Lou Knack; tweaked by John Chambers
R: reel
K: D
FG | "D"A2df "G"edcB | "A7"ABAG "D"F2EF | "Em"GAGF EBBB | "A7"ABAG "D"FDFG |
y4 | "D"A2df "G"edcB | "A7"ABAG "D"F2EF | "Em"GFEF "A7"GABc | "D"df"A"ec "D"d2 :|
A2 | "G"(3BcB GB d2cB | "D"(3ABA FA dAFA | "A7"GECE A,ECE | "D"DEFG A2FA |
y2 | "G"(3BcB GB d2cB | "D"(3ABA FA d2cd | "A7"efed cBAG | FABc "D"d2 |]
d2 | "G"dBGd BGdB | "D"FdAF d2cd | "A7"ez dz (3cdc (3BcB | "D"ABAG Fddd |
y2 | "G"dBGd BGdB | "D"FdAF d2cd | "A7"efed cBAG | FABc "D"d2 |]
